beta/v2.0.12/images/windows.svg

<svg xmlns="http://www.w3.org/2000/svg" width="76" height="76"><path d="M54 54V40H33v14h21zm3-20v23H30V34h27zm-14-9H22v14h5v3h-8V19h27v12h-3v-6z"/></svg>

<svg xmlns="http://www.w3.org/2000/svg" width="76" height="76" xml:space="preserve">﻿
  ﻿<path fill="#000000" fill-opacity="1" stroke-width="0.2" stroke-linejoin="round" d="M 54,54L 54,40L 33,40L 33,54L 54,54 Z M 57,34L 57,57L 30,57L 30,34L 57,34 Z M 43,25L 22,25L 22,39L 27,39L 27,42L 19,42L 19,19L 46,19L 46,31L 43,31L 43,25 Z "></path></svg>
